icons/mobile/24/svg/sync-24.svg

<svg width="24" height="24" viewBox="0 0 24 24" fill="none" xmlns="http://www.w3.org/2000/svg">
<path d="M16.957 7.51932C17.3546 7.2446 17.9001 7.34441 18.1748 7.74197C19.0105 8.95154 19.4999 10.4199 19.5 11.9998C19.5 16.142 16.1422 19.4997 12 19.4998C11.9915 19.4998 11.9831 19.4988 11.9746 19.4988V21.5203C11.9743 21.9621 11.4429 22.1867 11.126 21.8767L8.12598 18.9412C7.927 18.7472 7.92517 18.4282 8.12109 18.2312L11.1211 15.2185C11.4351 14.9029 11.9746 15.1262 11.9746 15.5721V17.7488C11.9831 17.7488 11.9915 17.7498 12 17.7498C15.1757 17.7497 17.75 15.1755 17.75 11.9998C17.7499 10.786 17.3754 9.66234 16.7354 8.73611C16.4608 8.33869 16.5598 7.79411 16.957 7.51932Z" fill="black"/>
<path d="M12 2.50076C12.0001 2.05488 12.5405 1.83227 12.8545 2.14822L15.8545 5.15994C16.0503 5.35696 16.0476 5.67598 15.8486 5.8699L12.8486 8.80643C12.5316 9.11577 11.9991 8.89076 11.999 8.44901L12 6.24979C8.8243 6.24979 6.25008 8.82411 6.25 11.9998C6.25 13.2179 6.62696 14.3451 7.27148 15.2742C7.54692 15.6712 7.44875 16.2165 7.05176 16.492C6.65471 16.7673 6.10941 16.6683 5.83398 16.2713C4.99273 15.0585 4.5 13.5855 4.5 11.9998C4.50008 7.85761 7.8578 4.49979 12 4.49979V2.50076Z" fill="black"/>
</svg>

<!-- This Source Code Form is subject to the terms of the Mozilla Public
   - License, v. 2.0. If a copy of the MPL was not distributed with this
   - file, You can obtain one at http://mozilla.org/MPL/2.0/. -->
<svg xmlns="http://www.w3.org/2000/svg" width="24" height="24" fill="none" viewBox="0 0 24 24">
    <path fill="#000" d="M16.957 7.52a.876.876 0 0 1 1.218.222A7.5 7.5 0 0 1 12 19.5l-.025-.001v2.021a.5.5 0 0 1-.849.357l-3-2.936a.5.5 0 0 1-.005-.71l3-3.013a.5.5 0 0 1 .854.354v2.177H12a5.75 5.75 0 0 0 4.735-9.013.875.875 0 0 1 .222-1.217M12 2.5a.5.5 0 0 1 .854-.352l3 3.012a.5.5 0 0 1-.005.71l-3 2.936a.5.5 0 0 1-.85-.357l.001-2.2a5.75 5.75 0 0 0-4.729 9.025.875.875 0 1 1-1.437.997A7.5 7.5 0 0 1 12 4.5z" />
</svg>
